_public/resources/icons/show.svg

<svg width="64" height="64" viewBox="0 0 64 64" fill="none" xmlns="http://www.w3.org/2000/svg">
<path d="M32 14C53.4065 14 61 32 61 32C61 32 53.4065 50 32 50C10.5935 50 3 32 3 32C3 32 10.5935 14 32 14Z" stroke="black" stroke-width="6" stroke-linecap="round" stroke-linejoin="round"/>
<path d="M32 14V8" stroke="black" stroke-width="6" stroke-linecap="round" stroke-linejoin="round"/>
<path d="M18 16L15 10.8038" stroke="black" stroke-width="6" stroke-linecap="round" stroke-linejoin="round"/>
<path d="M46 16L49 10.8038" stroke="black" stroke-width="6" stroke-linecap="round" stroke-linejoin="round"/>
<path fill-rule="evenodd" clip-rule="evenodd" d="M44 32C44 38.6274 38.6274 44 32 44C25.3726 44 20 38.6274 20 32C20 25.3726 25.3726 20 32 20C38.6274 20 44 25.3726 44 32ZM30.8918 24.612L26.459 30.5224C25.847 31.3385 25.847 32.6615 26.459 33.4776L30.8918 39.388C31.5038 40.204 32.4962 40.204 33.1082 39.388L37.541 33.4776C38.153 32.6615 38.153 31.3385 37.541 30.5224L33.1082 24.612C32.4962 23.796 31.5038 23.796 30.8918 24.612Z" fill="black"/>
</svg>

<svg xmlns="http://www.w3.org/2000/svg" width="64" height="64" fill="none"><path stroke="#000" stroke-linecap="round" stroke-linejoin="round" stroke-width="6" d="M32 14c21.407 0 29 18 29 18s-7.593 18-29 18C10.594 50 3 32 3 32s7.594-18 29-18M32 14V8M18 16l-3-5.196M46 16l3-5.196"/><path fill="#000" fill-rule="evenodd" d="M44 32c0 6.627-5.373 12-12 12s-12-5.373-12-12 5.373-12 12-12 12 5.373 12 12m-13.108-7.388-4.433 5.91c-.612.817-.612 2.14 0 2.956l4.433 5.91c.612.816 1.604.816 2.216 0l4.433-5.91c.612-.817.612-2.14 0-2.956l-4.433-5.91c-.612-.816-1.604-.816-2.216 0" clip-rule="evenodd"/></svg>
